svg/fluentui-system-icons/ic_fluent_dual_screen_closed_alert_20_regular.svg

<svg width="20" height="20" viewBox="0 0 20 20" fill="none" xmlns="http://www.w3.org/2000/svg">
<path d="M10.4994 5C10.4994 3.34326 11.8426 2 13.4994 2C15.1561 2 16.4994 3.34326 16.4994 5V7L17.8192 8.11865C18.1747 8.41968 17.9618 9 17.4959 9H9.50278C9.03745 9 8.82456 8.41968 9.17954 8.11865L10.4994 7.00024V5ZM13.4994 11C12.8465 11 12.2909 10.5825 12.0848 10H14.9139C14.7083 10.5825 14.1527 11 13.4994 11ZM6 6H9.49917V5H6C5.44772 5 5 5.44772 5 6V16C5 16.5523 5.44772 17 6 17H12C13.1046 17 14 16.1046 14 15V11.9499C13.8382 11.9827 13.6707 12 13.4992 12C13.3282 12 13.1612 11.9828 13 11.9502V15C13 15.5523 12.5523 16 12 16H6V6Z" fill="#212121"/>
</svg>

<svg xmlns="http://www.w3.org/2000/svg" width="20" height="20"><path d="M10.5 5a3 3 0 0 1 6 0v2l1.32 1.119a.5.5 0 0 1-.324.881H9.503a.5.5 0 0 1-.323-.881L10.5 7V5Zm3 6a1.501 1.501 0 0 1-1.415-1h2.829a1.5 1.5 0 0 1-1.415 1ZM6 6h3.5V5H6a1 1 0 0 0-1 1v10a1 1 0 0 0 1 1h6a2 2 0 0 0 2-2v-3.05a2.519 2.519 0 0 1-1 0V15a1 1 0 0 1-1 1H6V6Z"/></svg>
